X:1
T: Wakefield Hunt
N:
C:
S:
A:
O:
R:
M:6/8
K:G
%W: A1
% voice 1 (1 lines, 34 notes)
K:G
M:6/8
L:1/16
d6 B4 c2 d2 B2 G2 E4 D2 E2 F2 G2 D4 B2 c4 B2 A4 G2 |d6 B4 c2 d2 B2 G2 E4 D2 E2 F2 G2 D4 c2 B2 c2 A2 G6 |
%W: A2
% voice 1 (1 lines, 34 notes)
d6 B4 c2 d2 B2 G2 E4 D2 E2 F2 G2 D4 B2 c4 B2 A4 G2 |d6 B4 c2 d2 B2 G2 E4 D2 E2 F2 G2 D4 c2 B2 c2 A2 G6 |
%W: B1
% voice 1 (1 lines, 40 notes)
d2 D2 G2 e2 c2 A2 d2 B2 G2 E4 D2 E2 F2 G2 D4 B2 c4 B2 A4 G2 |d2 B2 G2 e2 c2 A2 d2 B2 G2 E4 D2 E2 F2 G2 D4 c2 B2 c2 A2 G6 |
%W: B2
% voice 1 (1 lines, 40 notes)
d2 D2 G2 e2 c2 A2 d2 B2 G2 E4 D2 E2 F2 G2 D4 B2 c4 B2 A4 G2 |d2 B2 G2 e2 c2 A2 d2 B2 G2 E4 D2 E2 F2 G2 D4 c2 B2 c2 A2 G6 |
%W: C1
% voice 1 (1 lines, 35 notes)
D4 D2 E4 E2 D4 B2 c4 B2 A2 c2 e2 d2 B2 G2 F4 G2 A6 |D4 D2 E4 E2 D4 B2 c4 B2 A2 c2 e2 d2 e2 c2 B2 c2 A2 G6 |
%W: C2
% voice 1 (1 lines, 35 notes)
D4 D2 E4 E2 D4 B2 c4 B2 A2 c2 e2 d2 B2 G2 F4 G2 A6 |D4 D2 E4 E2 D4 B2 c4 B2 A2 c2 e2 d2 e2 c2 B2 c2 A2 G6 ||
